src/topics/icons/trac.svg

<svg height="307" preserveAspectRatio="xMidYMid" viewBox="0 0 256 307" width="256" xmlns="http://www.w3.org/2000/svg"><g fill="#c00000"><path d="m26.4093561 241.05844c11.4712677 13.600282 31.0531222 26.865273 43.4116831 21.860399 12.3591706-5.002706 17.36775-41.591916 12.9385859-46.464931-4.429164-4.873016-28.0956841-44.525159-46.5015093-38.793308-18.4057344 5.731591-21.3200274 49.797559-9.8487597 63.39784z"/><path d="m30.9136655 140.047477c11.229341 18.672973 44.5540333 42.253829 65.9710919 33.868947 21.4167806-8.385038 6.7632326-37.77772-5.1038764-57.24106-1.7141037-2.811092-2.4512282-14.641934-10.0627273-24.7736044-7.6114991-10.1316705-19.6902621-16.717053-28.8304265-13.656653-25.9178088 8.6777653-33.4453294 48.2020894-21.9740617 61.8023704z"/><path d="m127.12069 132.183371c11.471207 13.600065 13.734419 27.564094 31.479274 26.884221s31.355848-42.794823 30.861984-59.8459128c-.49408-17.0510291-16.801965-55.5571666-45.58268-47.3923658-28.780993 8.1646448-29.894198 43.0334555-16.758578 80.3540576z"/><path d="m197.259881 185.862996c3.18601 16.763599 16.487949 28.457865 36.237856 23.04333 19.749432-5.412062 24.930034-56.229467 20.499569-61.102117-4.428296-4.87326-13.264876-30.344922-31.671629-24.613044-18.405608 5.73179-32.09202 41.14926-25.065796 62.671831z"/><path d="m96.0676019 303.560093c26.8097281 10.632245 36.1587351-17.220789 65.7550241-25.405928 29.596507-8.1852 54.947305 5.178442 63.530885-21.083509 11.001209-33.659638-15.998187-28.610067-37.657726-43.541252-21.659722-14.931836-16.109749-32.029652-49.569442-23.973704-36.075684 8.685891-17.793934 44.788295-31.800302 57.996512-20.3369698 19.179345-26.7975554 49.447098-10.2584391 56.007881z"/><path d="m1.66749887 166.619745c2.3145405 6.363965 13.36658153 12.543042 19.08274453 10.01801s5.4729691-9.074726 2.8096627-17.094659c-2.6632454-8.019717-15.37419296-18.130561-19.79802557-16.329681-4.42391527 1.80067-4.40892129 17.042365-2.09438166 23.40633z"/><path d="m28.4483856 62.6554474c2.3145011 6.363976 5.4549454 17.6922916 14.423717 14.2528039 8.9687105-3.4397045 11.7411241-9.6670151 9.0778177-17.6869488-2.6635232-8.0198727-13.5106037-19.8244487-17.9344356-18.0237325-4.4238258 1.800738-7.8816001 15.0939015-5.5670991 21.4578774z"/><path d="m129.079265 27.3437219c2.314501 6.3639759 14.043939 17.0324956 19.760015 14.5074877 5.716016-2.5252247 8.590592-14.6311201 5.927285-22.6510538-2.663493-8.0197643-14.899675-20.60390202-19.323503-18.8031695-4.423827 1.8007326-8.67831 20.5827162-6.363797 26.9467356z"/><path d="m215.147974 106.688478c2.314501 6.363976 6.404061 12.745562 12.120571 10.220433 5.715365-2.525042 12.197512-8.040368 9.535507-16.060668-2.664174-8.0196895-8.918885-26.3802877-13.344904-24.5790268-4.423789 1.8008681-10.625675 24.0552858-8.311174 30.4192618z"/></g></svg>

<?xml version="1.0" encoding="UTF-8" standalone="no"?>
<svg width="256px" height="307px" viewBox="0 0 256 307" version="1.1" xmlns="http://www.w3.org/2000/svg" xmlns:xlink="http://www.w3.org/1999/xlink" preserveAspectRatio="xMidYMid">
    <g>
        <path d="M26.4093561,241.05844 C37.8806238,254.658722 57.4624783,267.923713 69.8210392,262.918839 C82.1802098,257.916133 87.1887892,221.326923 82.7596251,216.453908 C78.3304611,211.580892 54.663941,171.928749 36.2581158,177.6606 C17.8523814,183.392191 14.9380884,227.458159 26.4093561,241.05844 L26.4093561,241.05844 Z" fill="#C00000"></path>
        <path d="M30.9136655,140.047477 C42.1430065,158.72045 75.4676988,182.301306 96.8847574,173.916424 C118.301538,165.531386 103.64799,136.138704 91.780881,116.675364 C90.0667773,113.864272 89.3296528,102.03343 81.7181537,91.9017596 C74.1066546,81.7700891 62.0278916,75.1847066 52.8877272,78.2451066 C26.9699184,86.9228719 19.4423978,126.447196 30.9136655,140.047477 L30.9136655,140.047477 Z" fill="#C00000"></path>
        <path d="M127.12069,132.183371 C138.591897,145.783436 140.855109,159.747465 158.599964,159.067592 C176.344819,158.387719 189.955812,116.272769 189.461948,99.2216792 C188.967868,82.1706501 172.659983,43.6645126 143.879268,51.8293134 C115.098275,59.9939582 113.98507,94.8627689 127.12069,132.183371 L127.12069,132.183371 Z" fill="#C00000"></path>
        <path d="M197.259881,185.862996 C200.445891,202.626595 213.74783,214.320861 233.497737,208.906326 C253.247169,203.494264 258.427771,152.676859 253.997306,147.804209 C249.56901,142.930949 240.73243,117.459287 222.325677,123.191165 C203.920069,128.922955 190.233657,164.340425 197.259881,185.862996 L197.259881,185.862996 Z" fill="#C00000"></path>
        <path d="M96.0676019,303.560093 C122.87733,314.192338 132.226337,286.339304 161.822626,278.154165 C191.419133,269.968965 216.769931,283.332607 225.353511,257.070656 C236.35472,223.411018 209.355324,228.460589 187.695785,213.529404 C166.036063,198.597568 171.586036,181.499752 138.126343,189.5557 C102.050659,198.241591 120.332409,234.343995 106.326041,247.552212 C85.9890712,266.731557 79.5284856,296.99931 96.0676019,303.560093 L96.0676019,303.560093 Z" fill="#C00000"></path>
        <path d="M1.66749887,166.619745 C3.98203937,172.98371 15.0340804,179.162787 20.7502434,176.637755 C26.4664064,174.112723 26.2232125,167.563029 23.5599061,159.543096 C20.8966607,151.523379 8.18571314,141.412535 3.76188053,143.213415 C-0.662034742,145.014085 -0.647040755,160.25578 1.66749887,166.619745 L1.66749887,166.619745 Z" fill="#C00000"></path>
        <path d="M28.4483856,62.6554474 C30.7628867,69.0194234 33.903331,80.347739 42.8721026,76.9082513 C51.8408131,73.4685468 54.6132267,67.2412362 51.9499203,59.2213025 C49.2863971,51.2014298 38.4393166,39.3968538 34.0154847,41.19757 C29.5916589,42.998308 26.1338846,56.2914715 28.4483856,62.6554474 L28.4483856,62.6554474 Z" fill="#C00000"></path>
        <path d="M129.079265,27.3437219 C131.393766,33.7076978 143.123204,44.3762175 148.83928,41.8512096 C154.555296,39.3259849 157.429872,27.2200895 154.766565,19.2001558 C152.103072,11.1803915 139.86689,-1.40374622 135.443062,0.396986298 C131.019235,2.1977189 126.764752,20.9797025 129.079265,27.3437219 L129.079265,27.3437219 Z" fill="#C00000"></path>
        <path d="M215.147974,106.688478 C217.462475,113.052454 221.552035,119.43404 227.268545,116.908911 C232.98391,114.383869 239.466057,108.868543 236.804052,100.848243 C234.139878,92.8285535 227.885167,74.4679553 223.459148,76.2692162 C219.035359,78.0700843 212.833473,100.324502 215.147974,106.688478 L215.147974,106.688478 Z" fill="#C00000"></path>
    </g>
</svg>
